X:5965
T:Shanvaghera
O:england
M:2/2
L:1/8
C:Ed Reavy
R:Reel
N:The name of Brigid's school in County
N:Mayo. Like so many other place names in
N:Ireland it has the sound of the tradition in it.
N:The school no longer stands, but Ed's
N:tune, we trust, will live on to honor
N:the memory of Delia's little schoolhouse
N:in the far west of Ireland.
K:D
FG | Addc d2 AB|=cAG=F ECCE|DA,DE FEFG|(3ABA G_B Adde|
=fedf ed^ce|d^cA^F GE=CE |DEFG Ad=cA|GE=CE D2:||
A2|defg afdB|[E2=c2] Gc EcGc|defg afdf|e=c (3cBc Addf|
afdf edce|dcAF GE=CE|AEFG Ae=cA|GE=CE D2:||


